src/icons/autorag.svg

<svg width="64" height="64" viewBox="0 0 64 64" fill="none" xmlns="http://www.w3.org/2000/svg">
<path fill-rule="evenodd" clip-rule="evenodd" d="M8.03271 6.04688L6.03271 8.04688V55.9531L8.03271 57.9531H17.2591V53.9531H10.0327V10.0469H46.326V17.5223H50.326V8.04688L48.326 6.04688H8.03271ZM48.6467 37.5994L55.2794 43.618L57.9673 40.6557L51.3467 34.6481C52.1036 33.3239 52.5361 31.7905 52.5361 30.156C52.5361 25.1494 48.4775 21.0908 43.4709 21.0908C38.4644 21.0908 34.4058 25.1494 34.4058 30.156C34.4058 35.1626 38.4644 39.2212 43.4709 39.2212C45.3951 39.2212 47.1792 38.6217 48.6467 37.5994ZM33.233 44.3528H39.9637V48.3528H33.2322L36.4027 51.5232L33.5742 54.3516L30.397 51.1744L33.2254 48.3459L33.2295 48.35V44.3563L33.2254 44.3604L30.397 41.532L33.5742 38.3547L36.4027 41.1832L33.233 44.3528ZM26.3211 41.532L23.4978 44.3552V48.3511L26.3211 51.1744L23.1439 54.3516L20.3154 51.5232L23.4858 48.3528H16.7637V44.3528H23.4851L20.3154 41.1832L23.1439 38.3547L26.3211 41.532ZM30.3638 51.2188V57.9529H26.3638V51.2188H30.3638ZM30.3638 41.4873V34.7532H26.3638V41.4873H30.3638ZM39.3333 18.3442H14.2861V14.3442H39.3333V18.3442ZM14.2861 26.0525H31.4817V22.0525H14.2861V26.0525ZM23.9765 33.761H14.2861V29.761H23.9765V33.761ZM38.4058 30.156C38.4058 27.3586 40.6735 25.0908 43.4709 25.0908C46.2684 25.0908 48.5361 27.3586 48.5361 30.156C48.5361 32.9534 46.2684 35.2212 43.4709 35.2212C40.6735 35.2212 38.4058 32.9534 38.4058 30.156Z" fill="black"/>
</svg>

<svg xmlns="http://www.w3.org/2000/svg" width="64" height="64" fill="none" viewBox="0 0 64 64"><path fill="#000" fill-rule="evenodd" d="m8.033 6.047-2 2v47.906l2 2h9.226v-4h-7.226V10.047h36.293v7.475h4V8.047l-2-2zm40.614 31.552 6.632 6.019 2.688-2.962-6.62-6.008a9.065 9.065 0 1 0-7.876 4.573c1.924 0 3.708-.6 5.176-1.622m-15.414 6.754h6.73v4h-6.73l3.17 3.17-2.829 2.829-3.177-3.178 2.828-2.828.005.004v-3.994l-.005.004-2.828-2.828 3.177-3.177 2.829 2.828zm-6.912-2.821-2.823 2.823v3.996l2.823 2.823-3.177 3.178-2.829-2.829 3.17-3.17h-6.721v-4h6.721l-3.17-3.17 2.829-2.828zm4.043 9.687v6.734h-4v-6.734zm0-9.732v-6.734h-4v6.734zm8.97-23.143H14.285v-4h25.047zm-25.048 7.708h17.196v-4H14.286zm9.69 7.709h-9.69v-4h9.69zm14.43-3.605a5.065 5.065 0 1 1 10.13 0 5.065 5.065 0 0 1-10.13 0" clip-rule="evenodd"/></svg>
